X:83
T: DORT SINKET DIE SONNE IM WESTEN
N: F0190
O: Europa, Mitteleuropa, Deutschland
R: Tageszeiten - Lied, Abend
M: 6/8
L: 1/16
K: D
A,2 | D2C2D2F3ED2 | E4C2D4
F2 | E2C2C2E3DB,2 | A,6-A,4
A,C | E3DC2D2E2F2 | G8F2
E2 | D3CD2E2D2C2 | D8z2

